X:1
T:Alte Kameraden
T:Alte Kameraden
T:Carl Teike
T:(Old Comrades) - German Marching Song
C:Carl Teike
L:1/8
Q:1/4=116
M:4/4
K:Bb
V:1 bass nm="Violoncello" snm="Vc."
V:1
"^Allegretto"!ff! .F,2!<(! (C,/=B,,/C,/F,/) .A,2 (F,/=E,/F,/A,/) | .CC/C/ .C.C CB,A,G,!<)! | %2
!mp!"_cresc." .A,2 .A,2 A,2 (A,/^G,/A,/B,/) | .C2 .C2 C2 (C/=B,/C/=E/) | F2 =E2 D>C =B,C | =E8 | %6
!mf!"_cresc." .G,2 .G,2 G,2 (G,/^F,/G,/A,/) | .B,2 .B,2 B,2 (B,/A,/B,/C/) | =E2 D2 C>^F, G,^G, | %9
 A,8 |!f!"_cresc." .A,,2 .A,,2 A,,>A,, A,,B,, | .C,2 .C,2 .C,2 C,=E, | F,2 =E,2 D,>C, A,,F,, | %13
 !breath!G,,8 |!ff!{/C,} .G,2 .G,,>C, =E,2 C,2 |{/C,} .G,2 .G,>C =E2 C2 | %16
 G,,>^G,, A,,B,, =B,,2 =G,,2 | C,6!mf! C,>C, | C,2 B,2 A,2 G,2 | ^F,>G, A,G, .C,2 C,>C, | %20
 C,2 A,2 G,2 F,2 | =E,>F, G,F, .C,2 C,>C, | G,2 C,4 C,>C, | A,2 C,4 C,G, | %24
 C>=B, _B,A, G,>F, =E,D, | .C,C,/D,/ =E,D, C,B,,A,,G,, | %26
!mf! (F,/=E,/.F,) (F,/E,/.F,) (F,/E,/.F,) (F,/E,/F,/G,/) | .F,=E,/E,/ .E,.E, E,4 | %28
 (D,/^C,/.D,) (D,/C,/.D,) (D,/C,/.D,) (D,/C,/D,/=E,/) | .D,C,/C,/ .C,.C, C,2 (C,/D,/=E,) | %30
 (F,/=E,/.F,) (F,/E,/.F,) (F,/E,/.F,) (F,/E,/F,/^F,/) | .G,D,/D,/ .D,.D, D,4 | %32
 (D,/^C,/.D,) (D,/C,/.D,) =C,=E, .C2 ||[K:Eb] C,>C, D,=E, .F,2!f! F,>F, | F,2 G,2 =A,2 B,2 | %35
 D6 CC | B,>D, ^C,D, G,2 F,2 | =A,6 F,>F, | F,2 G,2 =A,2 B,2 | C6 B,B, | =A,>C, =B,,C, G,2 F,2 | %41
 D,6 F,>F, | F,2 G,2 =A,2 B,2 | D6 DD | D>B, =A,B, C2 B,2 | G,6 (G,^F,) | (F,4 F,)B,,D,G, | %47
 (F,4 F,)D,B,,G,, | F,,>=E,, F,,B,, D,2 C,2 | B,,8 |!ff! .E,2 .E,2 .E,2 .E,2 | (E,3 C,) C,4 | %52
 .D,2 .D,2 .D,2 .D,2 | (D,3 B,,) B,,4 | =A,,2 C,2 E,2 B,2 | =A,>A, A,A, A,4 | B,,2 C,2 D,2 G,2 | %57
 F,>F, F,=E, F,4 | .E,2 .E,2 .E,2 .E,2 | (E,3 C,) C,4 | .D,2 .D,2 .D,2 .D,2 | (D,3 B,,) B,,4 | %62
 G,,2 C,2 E,>D, E,G, | F,4- F,D,B,,G,, | F,,2 ^F,,2 G,,2 =A,,2 | %65
 B,,!fff!B,,/B,,/ B,,B,, B,, z2 z |] %66

